32x32/devices/blueman-camera.svg

<svg height="32" width="32" xmlns="http://www.w3.org/2000/svg"><path d="m16 1.5c-8 0-14.5 6.5-14.5 14.5s6.5 14.5 14.5 14.5 14.5-6.5 14.5-14.5-6.5-14.5-14.5-14.5z" fill="none" opacity=".15" stroke="#000"/><path d="m16 2c-7.725 0-14 6.275-14 14s6.275 14 14 14 14-6.275 14-14-6.275-14-14-14z" fill="#f9f9f9"/><path d="m16 6c-5.518 0-10 4.483-10 10 0 5.518 4.482 10 10 10s10-4.482 10-10-4.483-10-10-10z" fill="#e6e6e6"/><path d="m25 16a9 9 0 0 1 -18 0 9 9 0 1 1 18 0z" fill="#ccc"/><path d="m16 14a2 2 0 1 0 2 2c0-1.103-.897-2-2-2z" fill="none" opacity=".5"/><path d="m21.5 16a5.5 5.5 0 1 0 -11 0 5.5 5.5 0 0 0 11 0z" fill="none" opacity=".5" stroke="#fff"/><circle cx="16" cy="16" opacity=".5" r="5"/><circle cx="16" cy="16" opacity=".5" r="4"/><path d="m14.44 14.351a.773.809 0 0 1 -1.546 0 .773.809 0 1 1 1.547 0z" fill="#feffff" opacity=".4"/></svg>

<svg xmlns="http://www.w3.org/2000/svg" width="32" height="32" version="1"><path style="marker:none" d="M16 1.5C8 1.5 1.5 8 1.5 16S8 30.5 16 30.5 30.5 24 30.5 16 24 1.5 16 1.5z" color="#000" overflow="visible" opacity=".15" fill="none" stroke="#000"/><path style="marker:none" d="M16 2C8.275 2 2 8.275 2 16s6.275 14 14 14 14-6.275 14-14S23.725 2 16 2z" color="#000" overflow="visible" fill="#f9f9f9"/><path style="marker:none" d="M16 6C10.482 6 6 10.483 6 16c0 5.518 4.482 10 10 10s10-4.482 10-10S21.517 6 16 6z" color="#000" overflow="visible" fill="#e6e6e6"/><path style="marker:none" d="M25 16a9 9 0 0 1-18 0 9 9 0 1 1 18 0z" color="#000" overflow="visible" fill="#ccc"/><path d="M16 14a2 2 0 1 0 2 2c0-1.103-.897-2-2-2z" opacity=".5" fill="none"/><path style="marker:none" d="M21.5 16a5.5 5.5 0 1 0-11 0 5.5 5.5 0 0 0 11 0z" color="#000" overflow="visible" opacity=".5" fill="none" stroke="#fff"/><circle cx="16" cy="16" r="5" opacity=".5" paint-order="markers stroke fill"/><circle r="4" cy="16" cx="16" opacity=".5" paint-order="markers stroke fill"/><path style="marker:none" d="M14.44 14.351a.773.809 0 0 1-1.546 0 .773.809 0 1 1 1.547 0z" color="#000" overflow="visible" opacity=".4" fill="#feffff"/></svg>
